src/Pure/16/symbolic/actions/format-text-smaller-symbolic.svg

<?xml version="1.0" encoding="UTF-8" standalone="no"?>
<svg
   height="16"
   width="16"
   version="1.1"
   id="svg1"
   sodipodi:docname="format-text-smaller-symbolic.svg"
   inkscape:version="1.4.2 (ebf0e940d0, 2025-05-08)"
   xmlns:inkscape="http://www.inkscape.org/namespaces/inkscape"
   xmlns:sodipodi="http://sodipodi.sourceforge.net/DTD/sodipodi-0.dtd"
   xmlns="http://www.w3.org/2000/svg"
   xmlns:svg="http://www.w3.org/2000/svg">
  <defs
      id="defs1">
      <style id="current-color-scheme" type="text/css">
          .ColorScheme-Text { color:#363636; }
      </style>
  </defs>
  <sodipodi:namedview
     id="namedview1"
     pagecolor="#ffffff"
     bordercolor="#000000"
     borderopacity="0.25"
     inkscape:showpageshadow="2"
     inkscape:pageopacity="0.0"
     inkscape:pagecheckerboard="0"
     inkscape:deskcolor="#d1d1d1"
     inkscape:zoom="49.6875"
     inkscape:cx="8"
     inkscape:cy="8"
     inkscape:window-width="1920"
     inkscape:window-height="1010"
     inkscape:window-x="0"
     inkscape:window-y="0"
     inkscape:window-maximized="1"
     inkscape:current-layer="svg1" />
  <path
     id="path1"
     style="fill:currentColor"
     class="ColorScheme-Text"
     d="M 7.375 5 L 3.8125 14.28125 L 2.9375 14.28125 L 2.9375 15 L 5.75 15 L 5.75 14.28125 L 4.65625 14.28125 L 5.5 12.09375 L 9.6875 12.09375 L 10.53125 14.28125 L 9.4375 14.28125 L 9.4375 15 L 13.0625 15 L 13.0625 14.28125 L 12.0625 14.28125 L 8.5 5 L 7.375 5 z M 7.59375 6.625 L 9.4375 11.375 L 5.78125 11.375 L 7.59375 6.625 z " />
</svg>

<svg height="16" width="16" xmlns="http://www.w3.org/2000/svg"><path d="M7.375 5l-3.562 9.281h-.875V15H5.75v-.719H4.656l.844-2.187h4.188l.843 2.187H9.438V15h3.625v-.719h-1L8.5 5zm.219 1.625l1.844 4.75H5.781z" fill="#363636" font-family="DejaVu Serif" font-size="13.717" font-weight="400" letter-spacing="0" overflow="visible" style="line-height:125%;-inkscape-font-specification:'DejaVu Serif';marker:none" word-spacing="0" color="#363636"/></svg>
